icons/mobile/20/svg/bookmark-badge-fill-20.svg

<svg width="20" height="20" viewBox="0 0 20 20" fill="none" xmlns="http://www.w3.org/2000/svg">
<path d="M12.753 14C12.635 14 12.516 13.97 12.405 13.908C12.121 13.747 11.845 13.576 11.587 13.399C11.279 13.186 10.98 12.958 10.699 12.717C10.581 12.616 10.418 12.616 10.299 12.717C10.019 12.958 9.72001 13.186 9.41101 13.399C9.15301 13.576 8.87701 13.747 8.59301 13.908C8.34301 14.047 8.04701 14.028 7.82301 13.854C7.60201 13.685 7.50701 13.41 7.57701 13.138L8.16101 10.844C7.61501 10.546 7.09801 10.193 6.62301 9.79201C6.48601 9.67801 6.34701 9.55401 6.21001 9.42401C6.01301 9.23601 5.94801 8.96001 6.04101 8.70101C6.13701 8.43602 6.37101 8.25901 6.65101 8.24101L9.05601 8.08501L9.85601 6.07501C9.96301 5.80701 10.209 5.64001 10.498 5.64001C10.787 5.64001 11.033 5.80701 11.14 6.07501L11.94 8.08501L14.345 8.24101C14.625 8.25901 14.86 8.43602 14.955 8.70101C15.048 8.96001 14.984 9.23601 14.786 9.42401C14.649 9.55401 14.51 9.67801 14.373 9.79201C13.898 10.192 13.381 10.546 12.835 10.844L13.419 13.139C13.489 13.41 13.394 13.685 13.173 13.854C13.048 13.951 12.9 13.999 12.75 13.999L12.753 14Z" fill="black"/>
<path d="M10.5 5.63898C10.789 5.63898 11.035 5.80598 11.142 6.07398L11.942 8.08398L14.347 8.23998C14.627 8.25798 14.862 8.43498 14.957 8.69998C15.05 8.95898 14.986 9.23498 14.788 9.42298C14.651 9.55298 14.512 9.67698 14.375 9.79098C13.9 10.191 13.383 10.545 12.837 10.843L13.421 13.138C13.491 13.409 13.396 13.684 13.175 13.853C13.05 13.95 12.902 13.998 12.752 13.998C12.634 13.998 12.515 13.968 12.404 13.906C12.12 13.745 11.844 13.574 11.586 13.397C11.278 13.184 10.979 12.956 10.698 12.715C10.639 12.665 10.569 12.639 10.498 12.639C10.427 12.639 10.357 12.664 10.298 12.715C10.018 12.956 9.71904 13.184 9.41004 13.397C9.15204 13.574 8.87604 13.745 8.59204 13.906C8.48104 13.967 8.36204 13.998 8.24404 13.998C8.09504 13.998 7.94704 13.949 7.82204 13.852C7.60104 13.683 7.50604 13.408 7.57604 13.136L8.16004 10.842C7.61404 10.544 7.09704 10.191 6.62204 9.78998C6.48504 9.67598 6.34604 9.55198 6.20904 9.42198C6.01204 9.23398 5.94704 8.95798 6.04004 8.69898C6.13604 8.43398 6.37004 8.25698 6.65004 8.23898L9.05504 8.08298L9.85504 6.07298C9.96204 5.80498 10.208 5.63798 10.497 5.63798M10.5 4.13898C9.59804 4.13898 8.79904 4.68098 8.46404 5.51898L8.01404 6.64998L6.55504 6.74498C5.68304 6.80198 4.92804 7.36998 4.63104 8.19198C4.33704 9.00598 4.55104 9.91698 5.17604 10.512C5.33704 10.665 5.50104 10.812 5.66404 10.947C5.91004 11.155 6.16904 11.352 6.43704 11.539L6.12404 12.769C5.90704 13.619 6.21604 14.513 6.91204 15.046C7.29504 15.342 7.75804 15.5 8.24604 15.5C8.62004 15.5 8.99204 15.403 9.32304 15.219C9.65904 15.03 9.97204 14.835 10.262 14.635C10.342 14.58 10.422 14.524 10.5 14.467C10.578 14.523 10.657 14.579 10.736 14.634C11.028 14.835 11.341 15.029 11.668 15.214C12.005 15.402 12.378 15.5 12.753 15.5C13.233 15.5 13.709 15.338 14.091 15.043C14.784 14.513 15.093 13.618 14.874 12.767L14.561 11.539C14.83 11.351 15.091 11.152 15.341 10.941C15.496 10.812 15.661 10.665 15.823 10.511C16.447 9.91698 16.661 9.00698 16.367 8.19298C16.07 7.37098 15.315 6.80198 14.444 6.74498L12.984 6.64998L12.535 5.52098C12.2 4.68198 11.401 4.13998 10.499 4.13998L10.5 4.13898Z" fill="white"/>
</svg>

<!-- This Source Code Form is subject to the terms of the Mozilla Public
   - License, v. 2.0. If a copy of the MPL was not distributed with this
   - file, You can obtain one at http://mozilla.org/MPL/2.0/. -->
<svg xmlns="http://www.w3.org/2000/svg" width="20" height="20" fill="none" viewBox="0 0 20 20">
    <path fill="#000" d="M12.753 14a.7.7 0 0 1-.348-.092 11 11 0 0 1-1.706-1.191.3.3 0 0 0-.4 0 10.5 10.5 0 0 1-1.706 1.191.69.69 0 0 1-.77-.054.68.68 0 0 1-.246-.716l.584-2.294a9.3 9.3 0 0 1-1.951-1.42.67.67 0 0 1-.169-.723.69.69 0 0 1 .61-.46l2.405-.156.8-2.01a.68.68 0 0 1 .642-.435.68.68 0 0 1 .642.435l.8 2.01 2.405.156c.28.018.515.195.61.46a.67.67 0 0 1-.169.723q-.207.196-.413.368c-.475.4-.992.754-1.538 1.052l.584 2.295a.68.68 0 0 1-.246.715.7.7 0 0 1-.423.145z" />
    <path fill="#fff" d="M10.5 5.639a.68.68 0 0 1 .642.435l.8 2.01 2.405.156c.28.018.515.195.61.46a.67.67 0 0 1-.169.723q-.206.196-.413.368c-.475.4-.992.754-1.538 1.052l.584 2.295a.68.68 0 0 1-.246.715.7.7 0 0 1-.423.145.7.7 0 0 1-.348-.092 11 11 0 0 1-1.706-1.191.303.303 0 0 0-.4 0 10.5 10.5 0 0 1-1.706 1.191.69.69 0 0 1-.77-.054.68.68 0 0 1-.246-.716l.584-2.294a9.3 9.3 0 0 1-1.951-1.42.67.67 0 0 1-.169-.723.69.69 0 0 1 .61-.46l2.405-.156.8-2.01a.68.68 0 0 1 .642-.435m.003-1.499c-.902 0-1.701.542-2.036 1.38l-.45 1.131-1.459.095a2.2 2.2 0 0 0-1.924 1.447 2.18 2.18 0 0 0 .545 2.32q.242.231.488.435.37.312.773.592l-.313 1.23c-.217.85.092 1.744.788 2.277.383.296.846.454 1.334.454.374 0 .746-.097 1.077-.281a12 12 0 0 0 1.177-.752l.236.167q.44.302.932.58c.337.188.71.286 1.085.286.48 0 .956-.162 1.338-.457a2.18 2.18 0 0 0 .783-2.276l-.313-1.228a11 11 0 0 0 1.262-1.028 2.18 2.18 0 0 0 .544-2.318 2.2 2.2 0 0 0-1.923-1.448l-1.46-.095-.449-1.129a2.18 2.18 0 0 0-2.036-1.381z" />
</svg>
